X: 2050
Q: "Strathspey."
M: C
L: 1/16
K: A
uE2 |\
vC3vEuA3uE CCC2 C4 | vC3uEvAuc3 B3B,B,E3 |\
ue2 |:\
vfedc ac3 ec3e3a | ve3uc a2ga b3uBBa3 |\
vfedc va3vc ue3ucfa3 |[1 gb3 a3c ec3ca3 :|\
[2 ec3 A3F E3C C2 |]


